src/pos-icons/bed-king-outline.svg

<svg height="24" viewBox="0 0 24 24" width="24" xmlns="http://www.w3.org/2000/svg"><path d="m20 10v-3a2 2 0 0 0 -2-2h-12a2 2 0 0 0 -2 2v3a2 2 0 0 0 -2 2v5h1.33l.67 2h1l.67-2h12.66l.67 2h1l.67-2h1.33v-5a2 2 0 0 0 -2-2m-7-3h5v3h-5m-7-3h5v3h-5m14 5h-16v-3h16z"/></svg>

<?xml version="1.0" encoding="UTF-8"?><!DOCTYPE svg PUBLIC "-//W3C//DTD SVG 1.1//EN" "http://www.w3.org/Graphics/SVG/1.1/DTD/svg11.dtd"><svg xmlns="http://www.w3.org/2000/svg" xmlns:xlink="http://www.w3.org/1999/xlink" version="1.1" id="mdi-bed-king-outline" width="24" height="24" viewBox="0 0 24 24"><path d="M20 10V7A2 2 0 0 0 18 5H6A2 2 0 0 0 4 7V10A2 2 0 0 0 2 12V17H3.33L4 19H5L5.67 17H18.33L19 19H20L20.67 17H22V12A2 2 0 0 0 20 10M13 7H18V10H13M6 7H11V10H6M20 15H4V12H20Z" /></svg>
